X:1
T:Jesus, Jesus Only
T:Hubert Platt Main
T:Jesus, Jesus Only
T:Public Domain
T:Public Domain
C:Hubert Platt Main
Z:Public Domain
%%score ( 1 2 ) ( 3 4 )
L:1/8
M:6/4
K:Ab
V:1 treble 
V:2 treble 
V:3 bass 
V:4 bass 
V:1
 [Ec]4 [CA]2 [Ec]4 [EA]2 | (B2 A2) [DF]2 [CE]6 | [Ec]4 [Ed]2 [Ae]4 [Ec]2 | [EB]4 [Ec]2 [EB]6 | %4
w: 1.~Would you be this|day * made whole,|dom gain from sin’s|con- trol? Je-|
w: 2.~Je- sus ten- der-|ly * will lead,|you grace for all|your need, And|
w: 3.~Oh, what friend can|love * us so?|like Him, our hearts|can know, Who|
w: 4.~He a- lone our|souls * can guide|ver death’s dark, swell-|ing tide, Home|
 ([Ec]3 [DB]) [CA]2 (c3 B) [EA]2 | (B2 A2) [DF]2 [FA]6 | [CE]4 [EA]2 [Ec]4 [EA]2 | [DB]6 [CA]6 || %8
w: sus * can re- * deem|soul— * Je- sus,|sus on- ly. *||
w: your * cause in * Heav-|plead— * Je- sus,|sus on- ly. *||
w: hath * borne our * ev-|woe? * Je- sus,|sus on- ly. *||
w: at * last, and * by|side— * Je- sus,|sus on- ly. *||
"^Refrain" [DF]4 [DF]2 ([FA]3 [EG]) [DF]2 | [CE]4 [A,C]2 [CE]6 | [CA]4 [DA]2 (A3 B) [Ec]2 | %11
w: |||
w: |||
w: |||
w: |||
 [Ec]6 [EB]6 | ([Ec]3 [DB]) [CA]2 (c3 B) [EA]2 | (B2 A2) [DF]2 [FA]6 | [CE]4 [EA]2 [Ec]4 [EA]2 | %15
w: ||||
w: ||||
w: ||||
w: ||||
 [DB]6 [CA]6 |] %16
w: |
w: |
w: |
w: |
V:2
 x12 | F4 x8 | x12 | x12 | x6 E4 x2 | F4 x8 | x12 | x12 || x12 | x12 | x6 E4 x2 | x12 | x6 E4 x2 | %13
w: |Free-|||your|Je-||||||||
w: |Give|||en|Je-||||||||
w: |Who,|||’ry|Je-||||||||
w: |O-|||His|Je-||||||||
 F4 x8 | x12 | x12 |] %16
w: |||
w: |||
w: |||
w: |||
V:3
 [A,,A,]4 [A,,E,]2 [A,,A,]4 [C,A,]2 | [D,A,]4 [D,A,]2 [A,,A,]6 | A,4 [A,B,]2 [A,C]4 A,2 | %3
w: ~ ~ ~ ~|~ ~ ~|~ ~ ~ ~|
 [E,G,]4 [E,A,]2 [E,G,]6 | [A,,A,]4 [A,,E,]2 ([A,,A,]3 [B,,G,]) [C,A,]2 | [D,A,]4 [D,A,]2 [D,A,]6 | %6
w: ~ ~ ~|~ ~ ~ * ~|~ ~ ~|
 [E,A,]4 [E,C]2 [E,A,]4 [E,^G,]2 | [E,G,]6 [A,,A,]6 || [D,A,]4 [D,A,]2 [D,A,]4 [D,A,]2 | %9
w: ~ ~ ~ ~|In the|dark- ness do not|
 [A,,A,]4 [A,,E,]2 [A,,A,]6 | [A,,E,]4 [B,,E,]2 ([C,A,]3 [B,,G,]) [A,,A,]2 | [E,A,]6 [E,G,]6 | %12
w: live, Be not|sad or lone- * ly;|Je- sus,|
 [A,,A,]4 [A,,E,]2 ([A,,A,]3 [B,,G,]) [C,A,]2 | [D,A,]4 [D,A,]2 [D,A,]6 | %14
w: light and joy * can|give— Je- sus,|
 [E,A,]4 [E,C]2 [E,A,]4 [E,^G,]2 | [E,G,]6 [A,,E,A,]6 |] %16
w: Je- sus on- ly.||
V:4
 x12 | x12 | A,4 x2 A,2 x4 | x12 | x12 | x12 | x12 | x12 || x12 | x12 | x12 | x12 | x12 | x12 | %14
w: ||~ ~||||||||||||
 x12 | x12 |] %16
w: ||

